svgs/regular/person-dress-simple.svg

<svg xmlns="http://www.w3.org/2000/svg" viewBox="0 0 256 512"><!--! Font Awesome Pro 6.6.0 by @fontawesome - https://fontawesome.com License - https://fontawesome.com/license (Commercial License) Copyright 2024 Fonticons, Inc. --><path d="M128 0a64 64 0 1 1 0 128A64 64 0 1 1 128 0zM96.9 219.6L63.6 336l128.7 0L159.1 219.6c-2-6.9-8.2-11.6-15.4-11.6l-31.4 0c-7.1 0-13.4 4.7-15.4 11.6zM50.7 206.4c7.8-27.5 33-46.4 61.5-46.4l31.4 0c28.6 0 53.7 18.9 61.5 46.4l39.1 136.8c5.8 20.4-9.5 40.8-30.8 40.8L192 384l0 104c0 13.3-10.7 24-24 24s-24-10.7-24-24l0-104-32 0 0 104c0 13.3-10.7 24-24 24s-24-10.7-24-24l0-104-21.6 0c-21.3 0-36.6-20.3-30.8-40.8L50.7 206.4z"/></svg>

<svg xmlns="http://www.w3.org/2000/svg" viewBox="0 0 256 512"><!--! Font Awesome Pro 6.4.2 by @fontawesome - https://fontawesome.com License - https://fontawesome.com/license (Commercial License) Copyright 2023 Fonticons, Inc. --><path d="M128 0a64 64 0 1 1 0 128A64 64 0 1 1 128 0zM96.9 219.6L63.6 336H192.4L159.1 219.6c-2-6.9-8.2-11.6-15.4-11.6H112.3c-7.1 0-13.4 4.7-15.4 11.6zM50.7 206.4c7.8-27.5 33-46.4 61.5-46.4h31.4c28.6 0 53.7 18.9 61.5 46.4l39.1 136.8c5.8 20.4-9.5 40.8-30.8 40.8H192V488c0 13.3-10.7 24-24 24s-24-10.7-24-24V384H112V488c0 13.3-10.7 24-24 24s-24-10.7-24-24V384H42.4c-21.3 0-36.6-20.3-30.8-40.8L50.7 206.4z"/></svg>
